X: 6065
T: Capogiro
R: waltz
M: 3/4
K: Aminor
M:5/8
Ac|:(ed)c (BA)|(^GA)B EE|(FE)E (^DE)|(BA2) (Ac)|
(ed)c (BA)|(^GA)B EE|(FE)E (cB)|1 A3Ac:|2 A3^de||
|:(gf)e (^cA)|(ed2) (ef)|(ed)c (^AB)|(dc2)ef|
(gf)e (_ba)|(gf2) (de)|(dcB) (dc)|1 A3^de:|2 A5||

